svg/fluentui-system-icons/ic_fluent_tab_prohibited_24_regular.svg

<svg width="24" height="24" viewBox="0 0 24 24" fill="none" xmlns="http://www.w3.org/2000/svg">
<path d="M5.75 3C4.23122 3 3 4.23122 3 5.75V18.25C3 19.7688 4.23122 21 5.75 21H12.0218C11.7253 20.5368 11.4858 20.0335 11.3135 19.5H5.75C5.05964 19.5 4.5 18.9404 4.5 18.25V5.75C4.5 5.05964 5.05964 4.5 5.75 4.5H18.25C18.9404 4.5 19.5 5.05964 19.5 5.75V11.3135C20.0335 11.4858 20.5368 11.7253 21 12.0218V5.75C21 4.23122 19.7688 3 18.25 3H5.75ZM17.5 23C20.5376 23 23 20.5376 23 17.5C23 14.4624 20.5376 12 17.5 12C14.4624 12 12 14.4624 12 17.5C12 20.5376 14.4624 23 17.5 23ZM14.1911 19.7482C13.755 19.1075 13.5 18.3335 13.5 17.5C13.5 15.2909 15.2909 13.5 17.5 13.5C18.3335 13.5 19.1075 13.755 19.7482 14.1911L14.1911 19.7482ZM15.2518 20.8089L20.8089 15.2518C21.245 15.8925 21.5 16.6665 21.5 17.5C21.5 19.7091 19.7091 21.5 17.5 21.5C16.6665 21.5 15.8925 21.245 15.2518 20.8089Z" fill="#212121"/>
</svg>

<svg xmlns="http://www.w3.org/2000/svg" width="24" height="24"><path d="M5.75 3A2.75 2.75 0 0 0 3 5.75v12.5A2.75 2.75 0 0 0 5.75 21h6.272a6.471 6.471 0 0 1-.709-1.5H5.75c-.69 0-1.25-.56-1.25-1.25V5.75c0-.69.56-1.25 1.25-1.25h12.5c.69 0 1.25.56 1.25 1.25v5.563a6.471 6.471 0 0 1 1.5.709V5.75A2.75 2.75 0 0 0 18.25 3H5.75ZM17.5 23a5.5 5.5 0 1 0 0-11 5.5 5.5 0 0 0 0 11Zm-3.309-3.252a4 4 0 0 1 5.557-5.557l-5.557 5.557Zm1.06 1.06 5.558-5.556a4 4 0 0 1-5.557 5.557Z"/></svg>
